modules/coreui-icons-brand/icons/wattpad.svg

<svg version="1.1" xmlns="http://www.w3.org/2000/svg" width="32" height="32" viewBox="0 0 32 32">
<title>wattpad</title>
<path d="M30.609 24.349c0 2.365-1.807 4.172-4.172 4.172h-13.917c-7.094 0-11.13-3.755-11.13-10.432v-10.438c0-2.365 1.807-4.172 4.172-4.172h4.177c0.693 0 1.526 0.141 2.083 0.557 0.557-0.417 1.391-0.557 2.089-0.557h4.172c0.698 0 1.531 0.141 2.089 0.557 0.557-0.417 1.391-0.557 2.089-0.557h4.172c2.365 0 4.172 1.807 4.172 4.172v16.698zM26.438 2.089h-4.177c-0.693 0-1.391 0.141-2.089 0.417-0.661-0.271-1.37-0.417-2.083-0.417h-4.177c-0.693 0-1.391 0.141-2.083 0.417-0.667-0.271-1.375-0.417-2.089-0.417h-4.172c-3.073 0.005-5.557 2.495-5.568 5.563v10.438c0 7.375 4.729 11.828 12.521 11.828h13.911c3.073-0.010 5.563-2.5 5.568-5.568v-16.698c-0.010-3.068-2.495-5.557-5.568-5.563zM12.521 24.349h13.911v-16.698h-4.172v13.917h-4.172v-13.917h-4.177v13.917h-1.391c-1.391 0-2.781-1.115-2.781-3.479v-10.438h-4.177v10.438c0 4.172 1.948 6.26 6.958 6.26z"></path>
</svg>

<svg xmlns="http://www.w3.org/2000/svg" width="32" height="32" viewBox="0 0 32 32"><path d="M30.609 24.349c0 2.365-1.807 4.172-4.172 4.172H12.52c-7.094 0-11.13-3.755-11.13-10.432V7.651c0-2.365 1.807-4.172 4.172-4.172h4.177c.693 0 1.526.141 2.083.557.557-.417 1.391-.557 2.089-.557h4.172c.698 0 1.531.141 2.089.557.557-.417 1.391-.557 2.089-.557h4.172c2.365 0 4.172 1.807 4.172 4.172v16.698zm-4.171-22.26h-4.177c-.693 0-1.391.141-2.089.417a5.503 5.503 0 00-2.083-.417h-4.177c-.693 0-1.391.141-2.083.417a5.553 5.553 0 00-2.089-.417H5.568A5.58 5.58 0 000 7.652V18.09c0 7.375 4.729 11.828 12.521 11.828h13.911A5.584 5.584 0 0032 24.35V7.652a5.58 5.58 0 00-5.568-5.563zm-13.917 22.26h13.911V7.651H22.26v13.917h-4.172V7.651h-4.177v13.917H12.52c-1.391 0-2.781-1.115-2.781-3.479V7.651H5.562v10.438c0 4.172 1.948 6.26 6.958 6.26z"/></svg>
